X: 386
T:The Jolly Plowman
M:C
L:1/8
B:O'Neill's 386
N:"Moderate."
N:"1st Setting."
N:"collected by F. O'Neill"
Z:Transcribed by Chris Falt, cfalt@trytel.com
K:A
E|A2(c>A) (de (e2c>e)|(ed)Bd (dc)Ac|dBAG A2z :|
e|(e>d)cd (eagf)|(e>d)cd e2a>a|(a2fa)ag2e|gfed .e(g/2f/2 e/2d/2c/2B/2)|
A2(c>A) dBAG|(Ace2) (e2c>e)|edBd dcAc|dBAG A2||
